X: 1062
T: The Green Meadow
R:double jig
N:"collected by O'Reilly"
B:O'Neill's 1062
Z:Transcribed by henrik.norbeck@mailbox.swipnet.se
M:6/8
L:1/8
K:D
A|def AFA|DED AFA|def AFA|EFA TB2A|
def AFA|DED AFA|dcB AGF|EFA TB2:|
A|Add fdB|cBc ecA|Add fdB|AFA {c}B2A|
[1 Add fdB|cBc efg|fdB AGF|EFA B2:|
[2 Aff fed|cee efg|fdB AGF|EFA B2||


